src/Assets/buildings-2.svg

<svg width="26" height="25" viewBox="0 0 26 25" fill="none" xmlns="http://www.w3.org/2000/svg">
<path d="M11.5562 4.40471V6.3125H10.03C8.36968 6.3125 7.53439 7.14779 7.53439 8.80811V18.6875H4.90471C3.43003 18.6875 2.6875 17.945 2.6875 16.4703V4.40471C2.6875 2.93003 3.43003 2.1875 4.90471 2.1875H9.33908C10.8138 2.1875 11.5562 2.93003 11.5562 4.40471Z" fill="#D99E20"/>
<path opacity="0.4" d="M18.5381 8.80811V20.3169C18.5381 21.9772 17.7131 22.8125 16.0528 22.8125H10.0303C8.36996 22.8125 7.53467 21.9772 7.53467 20.3169V8.80811C7.53467 7.14779 8.36996 6.3125 10.0303 6.3125H16.0528C17.7131 6.3125 18.5381 7.14779 18.5381 8.80811Z" fill="#D99E20"/>
<path d="M23.3131 4.40471V16.4703C23.3131 17.945 22.5705 18.6875 21.0958 18.6875H18.5384V8.80811C18.5384 7.14779 17.7134 6.3125 16.0531 6.3125H14.4443V4.40471C14.4443 2.93003 15.1868 2.1875 16.6615 2.1875H21.0958C22.5705 2.1875 23.3131 2.93003 23.3131 4.40471Z" fill="#D99E20"/>
<path d="M15.0625 12.2422H10.9375C10.5147 12.2422 10.1641 11.8916 10.1641 11.4688C10.1641 11.0459 10.5147 10.6953 10.9375 10.6953H15.0625C15.4853 10.6953 15.8359 11.0459 15.8359 11.4688C15.8359 11.8916 15.4853 12.2422 15.0625 12.2422Z" fill="#D99E20"/>
<path d="M15.0625 15.3359H10.9375C10.5147 15.3359 10.1641 14.9853 10.1641 14.5625C10.1641 14.1397 10.5147 13.7891 10.9375 13.7891H15.0625C15.4853 13.7891 15.8359 14.1397 15.8359 14.5625C15.8359 14.9853 15.4853 15.3359 15.0625 15.3359Z" fill="#D99E20"/>
<path d="M13.7734 19.7188V22.8125H12.2266V19.7188C12.2266 19.2959 12.5772 18.9453 13 18.9453C13.4228 18.9453 13.7734 19.2959 13.7734 19.7188Z" fill="#D99E20"/>
</svg>

<svg xmlns="http://www.w3.org/2000/svg" width="26" height="25" fill="none"><path fill="#D99E20" d="M11.556 4.405v1.907H10.03c-1.66 0-2.496.836-2.496 2.496v9.88h-2.63c-1.474 0-2.216-.743-2.216-2.218V4.405c0-1.475.742-2.218 2.217-2.218h4.434c1.475 0 2.217.743 2.217 2.218"/><path fill="#D99E20" d="M18.538 8.808v11.509c0 1.66-.825 2.496-2.485 2.496H10.03c-1.66 0-2.495-.836-2.495-2.496V8.808c0-1.66.835-2.495 2.495-2.495h6.023c1.66 0 2.485.835 2.485 2.495" opacity=".4"/><path fill="#D99E20" d="M23.313 4.405V16.47c0 1.475-.742 2.218-2.217 2.218h-2.558v-9.88c0-1.66-.825-2.495-2.485-2.495h-1.609V4.405c0-1.475.743-2.218 2.217-2.218h4.435c1.474 0 2.217.743 2.217 2.218M15.063 12.242h-4.126a.78.78 0 0 1-.773-.773c0-.423.35-.774.774-.774h4.124c.423 0 .774.35.774.774 0 .423-.35.773-.774.773M15.063 15.336h-4.126a.78.78 0 0 1-.773-.774c0-.422.35-.773.774-.773h4.124c.423 0 .774.35.774.774 0 .422-.35.773-.774.773M13.773 19.719v3.093h-1.546V19.72c0-.423.35-.774.773-.774s.773.35.773.774"/></svg>
